!!!OTL: Brakken hir Gee&szlig; huet den Dekkel geschannt, S. 23
!!!id: R0047
**kern
*clefG2
*k[f#]
*G:
{16g
=1
16g
4g
16g
16g
4b
16g
=2yy
16g
=3
8dd
8dd
8dd
4.dd
=4
4b
16g
16g
4.g}
=5
{4g
16g
16g
4b
8g
=6
8dd
8dd
8dd
4.dd
=7
4b
16g
16g
4.g}
=8
{4e
8e
8.g
16e
16e
16e
=9
4e
8d
4.cc
=10
4e
8e
4.e}
=11
{4f#
8e
4d
8cc
=12
4b
8a
4.g
=13
8d
8e
8f#
4.b}
==
*-
!!!minrhy: 16
!!!meters: 6/8 ]  ZZ[4
!!!cut: Brakken hir Gee&szlig; huet den Dekkel geschannt, S. 23
!!!reg: Luxemburg
!!!trd: D'Fraen um Kanddaaf an der aler Zeit, Luxemburg 1929
!!!rhy1:   X__XXX__XX  X_X_X_X__.  X__XXX__.
!!!rhy2: X__XXX__X_  X_X_X_X__.  X__XXX__.
!!!key: R0047  16  G 6/8 ]  ZZ[4
!!!mod: HEPTATONIK IONISCH]  AMBITUS[8
!!!kad: 11-63
!!!akz: 135531_135531_-61-64-6-6_-7-531-53_
!!!fot: 'a__av_b__c__
!!!for: 'a__b__c__d__
!!!fok: '^__^__^__Va_
!! PHRAS[VOLLTAKTIG]
!!!fkt: ??
!! RUDEN, J.M.:
!! PR[18] 2K[3] 2G[15] 3K[3] 3G[3] 4A[9] 4Ü[0] 5A[0] 6K[0] 6G[0]
!! 7K[3] 7G[0] 8A[0] MEHR[0] SI[35] ABS[34] SR[18] SP[18]
!! ST[8] 2k[9] 2g[26] 3k[3] 3g[3] 4d[6] 4ü[0] 5d[0] 6k[0] 6g[0]
!! 7k[0] 7g[0] 8d[0] mehr[0] si[47] dm[-12] sr[35] sp[12]
!! 1F[16] 2F[24] 3F[49] 4F[3] LF[0] 2P[0] 3P[5] 4P[3] TRI[3] DF[6] AB[37]
!! TF[0] U3K[0] U3[3] U4[3] U4Ü[0] U5[26] U6K[0] U6[9] U7K[0] U7[3]
!! N1[23] N2K[0] N2[11] N3K[0] N3[14] N4[6] N4Ü[0] N5[3] N6K[0] N6[0]
!!!n7k: 0] N7[0] O1[0] O2K[0] O2[0] O3K[0] O3[0] HÖ[0
!!!RNB: symbol: &szlig; = sz ligature (UTF-8: ÃŸ)
